rospo-icon-theme-classic-common/16x16/apps/com.github.bcedu.museic.svg

<svg height="16" width="16" xmlns="http://www.w3.org/2000/svg"><path d="m5 3.0634391v5.9875609c-.1645-.034-.3321-.051-.5-.051-1.3807 0-2.5 1.119-2.5 2.5s1.1193 2.5 2.5 2.5 2.5-1.119 2.5-2.5v-7.5002l5-1.1263806v5.1773806c-.165-.0337-.332-.0507-.5-.0508-1.381 0-2.5 1.1193-2.5 2.5 0 1.381 1.119 2.5 2.5 2.5s2.5-1.119 2.5-2.5v-9.56628038s-.04401-1.05051874-1.139111-.80713903l-6.8407809 1.64670601c-1.0884522.142938-1.0201081 1.2267134-1.0201081 1.2901525z" fill="#4f4f4f" transform="translate(0 1)"/></svg>

<svg xmlns="http://www.w3.org/2000/svg" width="16" height="16" version="1">
 <g transform="translate(0,1)">
  <path style="fill:#4f4f4f" d="M 5,3.0634391 V 9.051 C 4.8355,9.017 4.6679,9 4.5,9 3.1193,9 2,10.119 2,11.5 2,12.881 3.1193,14 4.5,14 5.8807,14 7,12.881 7,11.5 V 3.9998 L 12,2.8734194 V 8.0508 C 11.835,8.0171 11.668,8.0001 11.5,8 10.119,8 9,9.1193 9,10.5 9,11.881 10.119,13 11.5,13 12.881,13 14,11.881 14,10.5 V 0.93371962 c 0,0 -0.04401,-1.05051874 -1.139111,-0.80713903 L 6.0201081,1.7732866 C 4.9316559,1.9162246 5,3 5,3.0634391 Z"/>
 </g>
</svg>
